src/assets/duotone/AudioSquare.svg

<svg width="24" height="24" viewBox="0 0 24 24"  xmlns="http://www.w3.org/2000/svg">
<path opacity="0.4" d="M16.1898 2H7.81976C4.17976 2 2.00977 4.17 2.00977 7.81V16.18C2.00977 19.82 4.17976 21.99 7.81976 21.99H16.1898C19.8298 21.99 21.9998 19.82 21.9998 16.18V7.81C21.9998 4.17 19.8298 2 16.1898 2Z" />
<path d="M15.6201 7.09996L13.3301 6.34001C12.7501 6.14001 12.1601 6.21996 11.7101 6.53996C11.2601 6.85996 11.0101 7.39999 11.0101 8.00999V8.61998V12.8C10.6101 12.58 10.1601 12.45 9.6701 12.45C8.13011 12.45 6.87012 13.71 6.87012 15.25C6.87012 16.79 8.13011 18.05 9.6701 18.05C11.2101 18.05 12.4701 16.79 12.4701 15.25V10.7C12.4801 10.71 12.5001 10.71 12.5101 10.72L14.8001 11.48C15.0101 11.55 15.2301 11.59 15.4401 11.59C15.8001 11.59 16.1401 11.49 16.4201 11.28C16.8701 10.96 17.1201 10.42 17.1201 9.80998V9.2C17.1201 8.29 16.4801 7.38996 15.6201 7.09996ZM9.6701 16.59C8.9301 16.59 8.34015 15.99 8.34015 15.26C8.34015 14.52 8.9401 13.92 9.6701 13.92C10.4101 13.92 11.0101 14.52 11.0101 15.26C11.0101 15.99 10.4101 16.59 9.6701 16.59Z" />
</svg>

<?xml version="1.0" encoding="UTF-8"?>
<svg width="24" height="24" viewBox="0 0 24 24" xmlns="http://www.w3.org/2000/svg">
 <path d="m16.19 2h-8.37c-3.64 0-5.81 2.17-5.81 5.81v8.37c0 3.64 2.17 5.81 5.81 5.81h8.37c3.64 0 5.81-2.17 5.81-5.81v-8.37c0-3.64-2.17-5.81-5.81-5.81z" opacity=".4"/>
 <path d="m15.62 7.1-2.29-0.75995c-0.58-0.2-1.17-0.12005-1.62 0.19995s-0.7 0.86003-0.7 1.47v4.79c-0.4-0.22-0.85-0.35-1.34-0.35-1.54 0-2.8 1.26-2.8 2.8s1.26 2.8 2.8 2.8c1.54 0 2.8-1.26 2.8-2.8v-4.55c0.01 0.01 0.03 0.01 0.04 0.02l2.29 0.76c0.21 0.07 0.43 0.11 0.64 0.11 0.36 0 0.7-0.1 0.98-0.31 0.45-0.32 0.7-0.86 0.7-1.47v-0.60998c0-0.91-0.64-1.81-1.5-2.1zm-5.95 9.49c-0.74 0-1.33-0.6-1.33-1.33 0-0.74 0.59995-1.34 1.33-1.34 0.74 0 1.34 0.6 1.34 1.34 0 0.73-0.6 1.33-1.34 1.33z"/>
</svg>
